; generated by PrusaSlicer 2.4.0+win64 on 2022-03-15 at 13:42:34 UTC

; 

; external perimeters extrusion width = 0.45mm
; perimeters extrusion width = 0.45mm
; infill extrusion width = 0.45mm
; solid infill extrusion width = 0.45mm
; top infill extrusion width = 0.45mm
; first layer extrusion width = 0.42mm

M201 X500 Y500 Z100 E5000 ; sets maximum accelerations, mm/sec^2
M203 X500 Y500 Z10 E60 ; sets maximum feedrates, mm/sec
M204 P500 R1000 T500 ; sets acceleration (P, T) and retract acceleration (R), mm/sec^2
M205 X8.00 Y8.00 Z0.40 E5.00 ; sets the jerk limits, mm/sec
M205 S0 T0 ; sets the minimum extruding and travel feed rate, mm/sec
M107
;TYPE:Custom
G90 ; use absolute coordinates
M83 ; extruder relative mode
M140 S60 ; set final bed temp
M104 S150 ; set temporary nozzle temp to prevent oozing during homing
G4 S10 ; allow partial nozzle warmup
G28 ; home all axis
G1 Z50 F240
G1 X2 Y10 F3000
M104 S210 ; set final nozzle temp
M190 S60 ; wait for bed temp to stabilize
M109 S210 ; wait for nozzle temp to stabilize
G1 Z0.28 F240
G92 E0
G1 Y140 E10 F1500 ; prime the nozzle
G1 X2.3 F5000
G92 E0
G1 Y10 E10 F1200 ; prime the nozzle
G92 E0
G21 ; set units to millimeters
G90 ; use absolute coordinates
M83 ; use relative distances for extrusion
; Filament gcode
M107
;LAYER_CHANGE
;Z:0.2
;HEIGHT:0.2
;BEFORE_LAYER_CHANGE
G92 E0
;0.2


G1 E-5 F3600
G1 Z.2 F9000
;AFTER_LAYER_CHANGE
;0.2
G1 X94.872 Y98.922
G1 E5 F2400
M204 S500
;TYPE:Skirt/Brim
;WIDTH:0.42
G1 F1200
G1 X96.27 Y98.081 E.05115
G1 X97.26 Y97.933 E.03138
G1 X133.74 Y97.933 E1.14383
G1 X135.324 Y98.327 E.05115
G1 X136.128 Y98.922 E.03138
G1 X139.328 Y102.122 E.14187
G1 X140.169 Y103.52 E.05115
G1 X140.317 Y104.51 E.03138
G1 X140.317 Y126.49 E.68919
G1 X139.923 Y128.074 E.05115
G1 X139.328 Y128.878 E.03138
G1 X136.128 Y132.078 E.14187
G1 X134.73 Y132.919 E.05115
G1 X133.74 Y133.067 E.03138
G1 X97.26 Y133.067 E1.14383
G1 X95.676 Y132.673 E.05115
G1 X94.872 Y132.078 E.03138
G1 X91.672 Y128.878 E.14187
G1 X90.831 Y127.48 E.05115
G1 X90.683 Y126.49 E.03138
G1 X90.683 Y104.51 E.68919
G1 X91.077 Y102.926 E.05115
G1 X91.672 Y102.122 E.03138
G1 X94.829 Y98.964 E.13999
G1 E-3.5 F3600
;WIPE_START
G1 F7200
G1 X96.27 Y98.081 E-.80263
G1 X97.26 Y97.933 E-.47543
G1 X97.569 Y97.933 E-.14695
;WIPE_END
G1 E-.075 F3600
G1 X129.887 Y126.897 F9000
G1 E5 F2400
;TYPE:Perimeter
G1 F1200
G1 X129.887 Y105.846 E.66005
G1 X101.113 Y105.846 E.90219
G1 X101.113 Y126.92 E.66077
G1 X107.54 Y126.92 E.20153
G1 X107.639 Y127.019 E.00436
G1 X107.643 Y128.511 E.04678
G1 X107.666 Y128.866 E.01116
G1 X107.303 Y128.817 E.01148
G1 X106.265 Y128.783 E.03258
G1 X97.544 Y128.783 E.27342
G1 X94.967 Y126.206 E.11427
G1 X94.967 Y104.794 E.67135
G1 X97.544 Y102.217 E.11427
G1 X133.456 Y102.217 E1.12599
G1 X136.033 Y104.794 E.11427
G1 X136.033 Y126.206 E.67135
G1 X133.456 Y128.783 E.11427
G1 X124.735 Y128.783 E.27342
G1 X123.697 Y128.817 E.03258
G1 X123.334 Y128.866 E.01148
G1 X123.357 Y128.511 E.01116
G1 X123.361 Y127.019 E.04678
G1 X123.46 Y126.92 E.00436
G1 X129.85 Y126.92 E.20037
G1 X129.51 Y126.543 F9000
;TYPE:External perimeter
G1 F1200
G1 X129.51 Y106.223 E.63712
G1 X101.49 Y106.223 E.87855
G1 X101.49 Y126.543 E.63712
G1 X107.697 Y126.543 E.1946
G1 X108.015 Y126.862 E.01413
G1 X108.02 Y128.498 E.0513
G1 X108.049 Y128.953 E.01429
G1 X108.096 Y129.26 E.00974
G1 X107.768 Y129.26 E.01028
G1 X107.272 Y129.194 E.0157
G1 X106.258 Y129.16 E.03179
G1 X97.388 Y129.16 E.27812
G1 X94.59 Y126.362 E.12407
G1 X94.59 Y104.638 E.68114
G1 X97.388 Y101.84 E.12407
G1 X133.612 Y101.84 E1.13578
G1 X136.41 Y104.638 E.12407
G1 X136.41 Y126.362 E.68114
G1 X133.612 Y129.16 E.12407
G1 X124.742 Y129.16 E.27812
G1 X123.728 Y129.194 E.03179
G1 X123.232 Y129.26 E.0157
G1 X122.904 Y129.26 E.01028
G1 X122.951 Y128.953 E.00974
G1 X122.98 Y128.498 E.01429
G1 X122.985 Y126.862 E.0513
G1 X123.303 Y126.543 E.01413
G1 X129.45 Y126.543 E.19272
G1 X129.91 Y126.537 F9000
G1 E-3.5 F3600
;WIPE_START
G1 F7200
G1 X129.459 Y123.543 E-1.425
;WIPE_END
G1 E-.075 F3600
G1 X133.167 Y102.33 F9000
G1 E5 F2400
;TYPE:Solid infill
;WIDTH:0.422142
G1 F1200
G1 X135.75 Y104.913 E.11517
G1 X135.75 Y105.449 E.01691
G1 X132.801 Y102.5 E.13152
G1 X132.265 Y102.5 E.01691
G1 X135.75 Y105.985 E.15544
G1 X135.75 Y106.522 E.01691
G1 X131.728 Y102.5 E.17935
G1 X131.192 Y102.5 E.01691
G1 X135.75 Y107.058 E.20327
G1 X135.75 Y107.594 E.01691
G1 X130.656 Y102.5 E.22718
G1 X130.119 Y102.5 E.01691
G1 X135.75 Y108.131 E.2511
G1 X135.75 Y108.667 E.01691
G1 X129.583 Y102.5 E.27501
G1 X129.047 Y102.5 E.01691
G1 X135.75 Y109.203 E.29893
G1 X135.75 Y109.74 E.01691
G1 X128.51 Y102.5 E.32285
G1 X127.974 Y102.5 E.01691
G1 X135.75 Y110.276 E.34676
G1 X135.75 Y110.812 E.01691
G1 X127.438 Y102.5 E.37068
G1 X126.901 Y102.5 E.01691
G1 X135.75 Y111.348 E.39459
G1 X135.75 Y111.885 E.01691
G1 X130.17 Y106.305 E.24884
G1 X130.17 Y106.841 E.01691
G1 X135.75 Y112.421 E.24884
G1 X135.75 Y112.957 E.01691
G1 X130.17 Y107.377 E.24884
G1 X130.17 Y107.913 E.01691
G1 X135.75 Y113.494 E.24884
G1 X135.75 Y114.03 E.01691
G1 X130.17 Y108.45 E.24884
G1 X130.17 Y108.986 E.01691
G1 X135.75 Y114.566 E.24884
G1 X135.75 Y115.103 E.01691
G1 X130.17 Y109.522 E.24884
G1 X130.17 Y110.059 E.01691
G1 X135.75 Y115.639 E.24884
G1 X135.75 Y116.175 E.01691
G1 X130.17 Y110.595 E.24884
G1 X130.17 Y111.131 E.01691
G1 X135.75 Y116.712 E.24884
G1 X135.75 Y117.248 E.01691
G1 X130.17 Y111.668 E.24884
G1 X130.17 Y112.204 E.01691
G1 X135.75 Y117.784 E.24884
G1 X135.75 Y118.32 E.01691
G1 X130.17 Y112.74 E.24884
G1 X130.17 Y113.276 E.01691
G1 X135.75 Y118.857 E.24884
G1 X135.75 Y119.393 E.01691
G1 X130.17 Y113.813 E.24884
G1 X130.17 Y114.349 E.01691
G1 X135.75 Y119.929 E.24884
G1 X135.75 Y120.466 E.01691
G1 X130.17 Y114.885 E.24884
G1 X130.17 Y115.422 E.01691
G1 X135.75 Y121.002 E.24884
G1 X135.75 Y121.538 E.01691
G1 X130.17 Y115.958 E.24884
G1 X130.17 Y116.494 E.01691
G1 X135.75 Y122.075 E.24884
G1 X135.75 Y122.611 E.01691
G1 X130.17 Y117.031 E.24884
G1 X130.17 Y117.567 E.01691
G1 X135.75 Y123.147 E.24884
G1 X135.75 Y123.683 E.01691
G1 X130.17 Y118.103 E.24884
G1 X130.17 Y118.639 E.01691
G1 X135.75 Y124.22 E.24884
G1 X135.75 Y124.756 E.01691
G1 X130.17 Y119.176 E.24884
G1 X130.17 Y119.712 E.01691
G1 X135.75 Y125.292 E.24884
G1 X135.75 Y125.829 E.01691
G1 X130.17 Y120.248 E.24884
G1 X130.17 Y120.785 E.01691
G1 X135.612 Y126.227 E.24268
G1 X135.344 Y126.495 E.01196
G1 X130.17 Y121.321 E.23073
G1 X130.17 Y121.857 E.01691
G1 X135.076 Y126.763 E.21877
G1 X134.808 Y127.031 E.01196
G1 X130.17 Y122.394 E.20681
G1 X130.17 Y122.93 E.01691
G1 X134.539 Y127.299 E.19485
G1 X134.271 Y127.568 E.01196
G1 X130.17 Y123.466 E.1829
G1 X130.17 Y124.002 E.01691
G1 X134.003 Y127.836 E.17094
G1 X133.735 Y128.104 E.01196
G1 X130.17 Y124.539 E.15898
G1 X130.17 Y125.075 E.01691
G1 X133.467 Y128.372 E.14702
G1 X133.339 Y128.5 E.00571
G1 X133.059 Y128.5 E.00883
G1 X130.17 Y125.611 E.12882
G1 X130.17 Y126.148 E.01691
G1 X132.522 Y128.5 E.10491
G1 X131.986 Y128.5 E.01691
G1 X130.17 Y126.684 E.08099
G1 X130.17 Y127.203 E.01637
G1 X130.153 Y127.203 E.00054
G1 X131.45 Y128.5 E.05784
G1 X130.914 Y128.5 E.01691
G1 X129.616 Y127.203 E.05784
G1 X129.08 Y127.203 E.01691
G1 X130.377 Y128.5 E.05784
G1 X129.841 Y128.5 E.01691
G1 X128.544 Y127.203 E.05784
G1 X128.008 Y127.203 E.01691
G1 X129.305 Y128.5 E.05784
G1 X128.768 Y128.5 E.01691
G1 X127.471 Y127.203 E.05784
G1 X126.935 Y127.203 E.01691
G1 X128.232 Y128.5 E.05784
G1 X127.696 Y128.5 E.01691
G1 X126.399 Y127.203 E.05785
G1 X125.862 Y127.203 E.01691
G1 X127.16 Y128.5 E.05785
G1 X126.623 Y128.5 E.01691
G1 X125.326 Y127.203 E.05785
G1 X124.79 Y127.203 E.01691
G1 X126.087 Y128.5 E.05785
G1 X125.551 Y128.5 E.01691
G1 X124.253 Y127.203 E.05785
G1 X123.717 Y127.203 E.01691
G1 X125.014 Y128.5 E.05785
G1 X124.486 Y128.509 E.01666
G1 X123.642 Y127.664 E.03764
G1 X123.64 Y128.199 E.01686
G1 X124.131 Y128.69 E.02189
G1 E-3.5 F3600
;WIPE_START
G1 F7200
G1 X123.64 Y128.199 E-.32978
G1 X123.642 Y127.664 E-.25395
G1 X124.486 Y128.509 E-.56702
G1 X125.014 Y128.5 E-.25095
G1 X124.98 Y128.466 E-.02331
;WIPE_END
G1 E-.075 F3600
G1 X129.598 Y105.733 F9000
G1 E5 F2400
G1 F1200
G1 X126.365 Y102.5 E.14418
G1 X125.829 Y102.5 E.01691
G1 X128.892 Y105.563 E.13661
G1 X128.356 Y105.563 E.01691
G1 X125.293 Y102.5 E.13661
G1 X124.756 Y102.5 E.01691
G1 X127.82 Y105.563 E.13661
G1 X127.284 Y105.563 E.01691
G1 X124.22 Y102.5 E.13661
G1 X123.684 Y102.5 E.01691
G1 X126.747 Y105.563 E.13661
G1 X126.211 Y105.563 E.01691
G1 X123.147 Y102.5 E.13661
G1 X122.611 Y102.5 E.01691
G1 X125.675 Y105.563 E.13661
G1 X125.138 Y105.563 E.01691
G1 X122.075 Y102.5 E.13661
G1 X121.538 Y102.5 E.01691
G1 X124.602 Y105.563 E.13661
G1 X124.066 Y105.563 E.01691
G1 X121.002 Y102.5 E.13661
G1 X120.466 Y102.5 E.01691
G1 X123.529 Y105.563 E.13661
G1 X122.993 Y105.563 E.01691
G1 X119.93 Y102.5 E.13661
G1 X119.393 Y102.5 E.01691
G1 X122.457 Y105.563 E.13661
G1 X121.921 Y105.563 E.01691
G1 X118.857 Y102.5 E.13661
G1 X118.321 Y102.5 E.01691
G1 X121.384 Y105.563 E.13661
G1 X120.848 Y105.563 E.01691
G1 X117.784 Y102.5 E.13661
G1 X117.248 Y102.5 E.01691
G1 X120.312 Y105.563 E.13661
G1 X119.775 Y105.563 E.01691
G1 X116.712 Y102.5 E.13661
G1 X116.175 Y102.5 E.01691
G1 X119.239 Y105.563 E.13661
G1 X118.703 Y105.563 E.01691
G1 X115.639 Y102.5 E.13661
G1 X115.103 Y102.5 E.01691
G1 X118.166 Y105.563 E.13661
G1 X117.63 Y105.563 E.01691
G1 X114.567 Y102.5 E.13661
G1 X114.03 Y102.5 E.01691
G1 X117.094 Y105.563 E.13661
G1 X116.558 Y105.563 E.01691
G1 X113.494 Y102.5 E.13661
G1 X112.958 Y102.5 E.01691
G1 X116.021 Y105.563 E.13661
G1 X115.485 Y105.563 E.01691
G1 X112.421 Y102.5 E.13661
G1 X111.885 Y102.5 E.01691
G1 X114.949 Y105.563 E.13661
G1 X114.412 Y105.563 E.01691
G1 X111.349 Y102.5 E.13661
G1 X110.812 Y102.5 E.01691
G1 X113.876 Y105.563 E.13661
G1 X113.34 Y105.563 E.01691
G1 X110.276 Y102.5 E.13661
G1 X109.74 Y102.5 E.01691
G1 X112.803 Y105.563 E.13661
G1 X112.267 Y105.563 E.01691
G1 X109.204 Y102.5 E.13661
G1 X108.667 Y102.5 E.01691
G1 X111.731 Y105.563 E.13661
G1 X111.195 Y105.563 E.01691
G1 X108.131 Y102.5 E.13661
G1 X107.595 Y102.5 E.01691
G1 X110.658 Y105.563 E.13661
G1 X110.122 Y105.563 E.01691
G1 X107.058 Y102.5 E.13661
G1 X106.522 Y102.5 E.01691
G1 X109.586 Y105.563 E.13661
G1 X109.049 Y105.563 E.01691
G1 X105.986 Y102.5 E.13661
G1 X105.449 Y102.5 E.01691
G1 X108.513 Y105.563 E.13661
G1 X107.977 Y105.563 E.01691
G1 X104.913 Y102.5 E.13661
G1 X104.377 Y102.5 E.01691
G1 X107.44 Y105.563 E.13661
G1 X106.904 Y105.563 E.01691
G1 X103.841 Y102.5 E.13661
G1 X103.304 Y102.5 E.01691
G1 X106.368 Y105.563 E.13661
G1 X105.832 Y105.563 E.01691
G1 X102.768 Y102.5 E.13661
G1 X102.232 Y102.5 E.01691
G1 X105.295 Y105.563 E.13661
G1 X104.759 Y105.563 E.01691
G1 X101.695 Y102.5 E.13661
G1 X101.159 Y102.5 E.01691
G1 X104.223 Y105.563 E.13661
G1 X103.686 Y105.563 E.01691
G1 X100.623 Y102.5 E.13661
G1 X100.086 Y102.5 E.01691
G1 X103.15 Y105.563 E.13661
G1 X102.614 Y105.563 E.01691
G1 X99.55 Y102.5 E.13661
G1 X99.014 Y102.5 E.01691
G1 X102.077 Y105.563 E.13661
G1 X101.541 Y105.563 E.01691
G1 X98.478 Y102.5 E.13661
G1 X97.941 Y102.5 E.01691
G1 X101.005 Y105.563 E.13661
G1 X100.83 Y105.563 E.00551
G1 X100.83 Y105.925 E.0114
G1 X97.533 Y102.628 E.14702
G1 X97.265 Y102.896 E.01196
G1 X100.83 Y106.461 E.15898
G1 X100.83 Y106.998 E.01691
G1 X96.997 Y103.164 E.17094
G1 X96.729 Y103.433 E.01196
G1 X100.83 Y107.534 E.1829
G1 X100.83 Y108.07 E.01691
G1 X96.461 Y103.701 E.19486
G1 X96.192 Y103.969 E.01196
G1 X100.83 Y108.607 E.20681
G1 X100.83 Y109.143 E.01691
G1 X95.924 Y104.237 E.21877
G1 X95.656 Y104.505 E.01196
G1 X100.83 Y109.679 E.23073
G1 X100.83 Y110.215 E.01691
G1 X95.388 Y104.773 E.24269
G1 X95.25 Y104.911 E.00616
G1 X95.25 Y105.172 E.0082
G1 X100.83 Y110.752 E.24884
G1 X100.83 Y111.288 E.01691
G1 X95.25 Y105.708 E.24884
G1 X95.25 Y106.244 E.01691
G1 X100.83 Y111.824 E.24884
G1 X100.83 Y112.361 E.01691
G1 X95.25 Y106.78 E.24884
G1 X95.25 Y107.317 E.01691
G1 X100.83 Y112.897 E.24884
G1 X100.83 Y113.433 E.01691
G1 X95.25 Y107.853 E.24884
G1 X95.25 Y108.389 E.01691
G1 X100.83 Y113.97 E.24884
G1 X100.83 Y114.506 E.01691
G1 X95.25 Y108.926 E.24884
G1 X95.25 Y109.462 E.01691
G1 X100.83 Y115.042 E.24884
G1 X100.83 Y115.578 E.01691
G1 X95.25 Y109.998 E.24884
G1 X95.25 Y110.535 E.01691
G1 X100.83 Y116.115 E.24884
G1 X100.83 Y116.651 E.01691
G1 X95.25 Y111.071 E.24884
G1 X95.25 Y111.607 E.01691
G1 X100.83 Y117.187 E.24884
G1 X100.83 Y117.724 E.01691
G1 X95.25 Y112.143 E.24884
G1 X95.25 Y112.68 E.01691
G1 X100.83 Y118.26 E.24884
G1 X100.83 Y118.796 E.01691
G1 X95.25 Y113.216 E.24884
G1 X95.25 Y113.752 E.01691
G1 X100.83 Y119.333 E.24884
G1 X100.83 Y119.869 E.01691
G1 X95.25 Y114.289 E.24884
G1 X95.25 Y114.825 E.01691
G1 X100.83 Y120.405 E.24884
G1 X100.83 Y120.941 E.01691
G1 X95.25 Y115.361 E.24884
G1 X95.25 Y115.898 E.01691
G1 X100.83 Y121.478 E.24884
G1 X100.83 Y122.014 E.01691
G1 X95.25 Y116.434 E.24884
G1 X95.25 Y116.97 E.01691
G1 X100.83 Y122.55 E.24884
G1 X100.83 Y123.087 E.01691
G1 X95.25 Y117.506 E.24884
G1 X95.25 Y118.043 E.01691
G1 X100.83 Y123.623 E.24884
G1 X100.83 Y124.159 E.01691
G1 X95.25 Y118.579 E.24884
G1 X95.25 Y119.115 E.01691
G1 X100.83 Y124.696 E.24884
G1 X100.83 Y125.232 E.01691
G1 X95.25 Y119.652 E.24884
G1 X95.25 Y120.188 E.01691
G1 X100.83 Y125.768 E.24884
G1 X100.83 Y126.304 E.01691
G1 X95.08 Y120.555 E.25641
G1 E-3.5 F3600
;WIPE_START
G1 F7200
G1 X97.202 Y122.676 E-1.425
;WIPE_END
G1 E-.075 F3600
G1 X106.922 Y127.033 F9000
G1 E5 F2400
G1 F1200
G1 X107.357 Y127.469 E.01941
G1 X107.359 Y128.007 E.01696
G1 X106.556 Y127.203 E.03583
G1 X106.019 Y127.203 E.01691
G1 X107.355 Y128.539 E.05957
G1 X106.798 Y128.518 E.01759
G1 X105.483 Y127.203 E.05863
G1 X104.947 Y127.203 E.01691
G1 X106.244 Y128.5 E.05785
G1 X105.708 Y128.5 E.01691
G1 X104.41 Y127.203 E.05785
G1 X103.874 Y127.203 E.01691
G1 X105.171 Y128.5 E.05785
G1 X104.635 Y128.5 E.01691
G1 X103.338 Y127.203 E.05785
G1 X102.801 Y127.203 E.01691
G1 X104.099 Y128.5 E.05785
G1 X103.562 Y128.5 E.01691
G1 X102.265 Y127.203 E.05785
G1 X101.729 Y127.203 E.01691
G1 X103.026 Y128.5 E.05785
G1 X102.49 Y128.5 E.01691
G1 X101.193 Y127.203 E.05784
G1 X100.83 Y127.203 E.01143
G1 X100.83 Y126.841 E.01143
G1 X95.25 Y121.261 E.24884
G1 X95.25 Y121.797 E.01691
G1 X101.953 Y128.5 E.29893
G1 X101.417 Y128.5 E.01691
G1 X95.25 Y122.333 E.27501
G1 X95.25 Y122.869 E.01691
G1 X100.881 Y128.5 E.2511
G1 X100.344 Y128.5 E.01691
G1 X95.25 Y123.406 E.22718
G1 X95.25 Y123.942 E.01691
G1 X99.808 Y128.5 E.20327
G1 X99.272 Y128.5 E.01691
G1 X95.25 Y124.478 E.17935
G1 X95.25 Y125.015 E.01691
G1 X98.735 Y128.5 E.15543
G1 X98.199 Y128.5 E.01691
G1 X95.25 Y125.551 E.13152
G1 X95.25 Y126.087 E.01691
G1 X97.832 Y128.67 E.11517
M106 S255
;LAYER_CHANGE
;Z:0.44
;HEIGHT:0.24
;BEFORE_LAYER_CHANGE
G92 E0
;0.44


G1 E-3.5 F3600
;WIPE_START
G1 F7200
G1 X95.711 Y126.549 E-1.425
;WIPE_END
G1 E-.075 F3600
G1 Z.44 F9000
;AFTER_LAYER_CHANGE
;0.44
M104 S205 ; set temperature
G1 X92.527 Y129.733
G1 E5 F2400
;TYPE:Skirt/Brim
;WIDTH:0.42
G1 X91.672 Y128.878 E.04444
G1 X90.831 Y127.48 E.05999
G1 X90.683 Y126.49 E.0368
G1 X90.683 Y104.51 E.80821
G1 X91.077 Y102.926 E.05999
G1 X91.672 Y102.122 E.0368
G1 X94.872 Y98.922 E.16637
G1 X96.27 Y98.081 E.05999
G1 X97.26 Y97.933 E.0368
G1 X133.74 Y97.933 E1.34135
G1 X135.324 Y98.327 E.05999
G1 X136.128 Y98.922 E.0368
G1 X139.328 Y102.122 E.16637
G1 X140.169 Y103.52 E.05999
G1 X140.317 Y104.51 E.0368
G1 X140.317 Y126.49 E.80821
G1 X139.923 Y128.074 E.05999
G1 X139.328 Y128.878 E.0368
G1 X136.128 Y132.078 E.16637
G1 X134.73 Y132.919 E.05999
G1 X133.74 Y133.067 E.0368
G1 X97.26 Y133.067 E1.34135
G1 X95.676 Y132.673 E.05999
G1 X94.872 Y132.078 E.0368
G1 X92.569 Y129.775 E.11973
G1 E-3.5 F3600
;WIPE_START
G1 F7200
G1 X91.672 Y128.878 E-.60258
G1 X90.831 Y127.48 E-.77494
G1 X90.816 Y127.381 E-.04748
;WIPE_END
G1 E-.075 F3600
G1 X129.823 Y126.855 F9000
G1 E5 F2400
;TYPE:Perimeter
;WIDTH:0.45
G1 X129.823 Y105.91 E.83284
G1 X101.177 Y105.91 E1.13906
G1 X101.177 Y126.857 E.8329
G1 X107.567 Y126.857 E.25409
G1 X107.702 Y126.992 E.00758
