; generated by PrusaSlicer 2.4.0+win64 on 2022-03-15 at 13:42:59 UTC

; 

; external perimeters extrusion width = 0.45mm
; perimeters extrusion width = 0.45mm
; infill extrusion width = 0.45mm
; solid infill extrusion width = 0.45mm
; top infill extrusion width = 0.45mm
; first layer extrusion width = 0.42mm

M201 X500 Y500 Z100 E5000 ; sets maximum accelerations, mm/sec^2
M203 X500 Y500 Z10 E60 ; sets maximum feedrates, mm/sec
M204 P500 R1000 T500 ; sets acceleration (P, T) and retract acceleration (R), mm/sec^2
M205 X8.00 Y8.00 Z0.40 E5.00 ; sets the jerk limits, mm/sec
M205 S0 T0 ; sets the minimum extruding and travel feed rate, mm/sec
M107
;TYPE:Custom
G90 ; use absolute coordinates
M83 ; extruder relative mode
M140 S60 ; set final bed temp
M104 S150 ; set temporary nozzle temp to prevent oozing during homing
G4 S10 ; allow partial nozzle warmup
G28 ; home all axis
G1 Z50 F240
G1 X2 Y10 F3000
M104 S210 ; set final nozzle temp
M190 S60 ; wait for bed temp to stabilize
M109 S210 ; wait for nozzle temp to stabilize
G1 Z0.28 F240
G92 E0
G1 Y140 E10 F1500 ; prime the nozzle
G1 X2.3 F5000
G92 E0
G1 Y10 E10 F1200 ; prime the nozzle
G92 E0
G21 ; set units to millimeters
G90 ; use absolute coordinates
M83 ; use relative distances for extrusion
; Filament gcode
M107
;LAYER_CHANGE
;Z:0.2
;HEIGHT:0.2
;BEFORE_LAYER_CHANGE
G92 E0
;0.2


G1 E-5 F3600
G1 Z.2 F9000
;AFTER_LAYER_CHANGE
;0.2
G1 X92.182 Y92.182
G1 E5 F2400
M204 S500
;TYPE:Skirt/Brim
;WIDTH:0.42
G1 F1200
G1 X94.872 Y89.492 E.11927
G1 X96.27 Y88.651 E.05115
G1 X97.26 Y88.503 E.03138
G1 X133.74 Y88.503 E1.14383
G1 X135.324 Y88.897 E.05115
G1 X136.128 Y89.492 E.03138
G1 X139.008 Y92.372 E.12768
G1 X139.849 Y93.77 E.05115
G1 X139.997 Y94.76 E.03138
G1 X139.997 Y136.24 E1.3006
G1 X139.603 Y137.824 E.05115
G1 X139.008 Y138.628 E.03138
G1 X136.128 Y141.508 E.12768
G1 X134.73 Y142.349 E.05115
G1 X133.74 Y142.497 E.03138
G1 X97.26 Y142.497 E1.14383
G1 X95.676 Y142.103 E.05115
G1 X94.872 Y141.508 E.03138
G1 X91.992 Y138.628 E.12768
G1 X91.151 Y137.23 E.05115
G1 X91.003 Y136.24 E.03138
G1 X91.003 Y94.76 E1.3006
G1 X91.397 Y93.176 E.05115
G1 X91.992 Y92.372 E.03138
G1 X92.139 Y92.224 E.00653
G1 E-3.5 F3600
;WIPE_START
G1 F7200
G1 X94.261 Y90.103 E-1.425
;WIPE_END
G1 E-.075 F3600
G1 X111.59 Y97.516 F9000
G1 E5 F2400
;TYPE:Perimeter
G1 F1200
G1 X120.187 Y97.516 E.26956
G1 X120.187 Y101.89 E.13715
G1 X110.813 Y101.89 E.29392
G1 X110.813 Y97.516 E.13715
G1 X111.53 Y97.516 E.02248
G1 X111.19 Y97.893 F9000
;TYPE:External perimeter
G1 F1200
G1 X119.81 Y97.893 E.27027
G1 X119.81 Y101.513 E.1135
G1 X111.19 Y101.513 E.27027
G1 X111.19 Y97.953 E.11162
G1 X111.038 Y97.524 F9000
G1 E-3.5 F3600
;WIPE_START
G1 F7200
G1 X114.19 Y97.933 E-1.425
;WIPE_END
G1 E-.075 F3600
G1 X97.944 Y92.567 F9000
G1 E5 F2400
;TYPE:Perimeter
G1 F1200
G1 X133.456 Y92.567 E1.11344
G1 X135.783 Y94.894 E.10319
G1 X135.783 Y136.106 E1.29216
G1 X133.456 Y138.433 E.10319
G1 X97.544 Y138.433 E1.12599
G1 X95.217 Y136.106 E.10319
G1 X95.217 Y94.894 E1.29216
G1 X97.544 Y92.567 E.10319
G1 X97.884 Y92.567 E.01066
G1 X97.388 Y92.19 F9000
;TYPE:External perimeter
G1 F1200
G1 X133.612 Y92.19 E1.13578
G1 X136.16 Y94.738 E.11298
G1 X136.16 Y136.262 E1.30196
G1 X133.612 Y138.81 E.11298
G1 X97.388 Y138.81 E1.13578
G1 X94.84 Y136.262 E.11298
G1 X94.84 Y94.738 E1.30196
G1 X97.346 Y92.232 E.1111
G1 X97.73 Y92.397 F9000
G1 E-3.5 F3600
;WIPE_START
G1 F7200
G1 X100.346 Y92.229 E-1.425
;WIPE_END
G1 E-.075 F3600
G1 X135.67 Y95.183 F9000
G1 E5 F2400
;TYPE:Solid infill
;WIDTH:0.42211
G1 F1200
G1 X133.337 Y92.85 E.10401
G1 X132.801 Y92.85 E.01691
G1 X135.5 Y95.549 E.12036
G1 X135.5 Y96.085 E.01691
G1 X132.265 Y92.85 E.14427
G1 X131.728 Y92.85 E.01691
G1 X135.5 Y96.622 E.16818
G1 X135.5 Y97.158 E.01691
G1 X131.192 Y92.85 E.19209
G1 X130.656 Y92.85 E.01691
G1 X135.5 Y97.694 E.21601
G1 X135.5 Y98.23 E.01691
G1 X130.12 Y92.85 E.23992
G1 X129.583 Y92.85 E.01691
G1 X135.5 Y98.767 E.26383
G1 X135.5 Y99.303 E.01691
G1 X129.047 Y92.85 E.28774
G1 X128.511 Y92.85 E.01691
G1 X135.5 Y99.839 E.31165
G1 X135.5 Y100.375 E.01691
G1 X127.975 Y92.85 E.33556
G1 X127.438 Y92.85 E.01691
G1 X135.5 Y100.912 E.35947
G1 X135.5 Y101.448 E.01691
G1 X126.902 Y92.85 E.38339
G1 X126.366 Y92.85 E.01691
G1 X135.5 Y101.984 E.4073
G1 X135.5 Y102.52 E.01691
G1 X125.83 Y92.85 E.43121
G1 X125.293 Y92.85 E.01691
G1 X135.5 Y103.057 E.45512
G1 X135.5 Y103.593 E.01691
G1 X124.757 Y92.85 E.47903
G1 X124.221 Y92.85 E.01691
G1 X135.5 Y104.129 E.50294
G1 X135.5 Y104.665 E.01691
G1 X123.685 Y92.85 E.52686
G1 X123.148 Y92.85 E.01691
G1 X135.5 Y105.202 E.55077
G1 X135.5 Y105.738 E.01691
G1 X122.612 Y92.85 E.57468
G1 X122.076 Y92.85 E.01691
G1 X135.5 Y106.274 E.59859
G1 X135.5 Y106.81 E.01691
G1 X121.54 Y92.85 E.6225
G1 X121.003 Y92.85 E.01691
G1 X135.5 Y107.347 E.64641
G1 X135.5 Y107.883 E.01691
G1 X120.467 Y92.85 E.67032
G1 X119.931 Y92.85 E.01691
G1 X135.5 Y108.419 E.69424
G1 X135.5 Y108.956 E.01691
G1 X119.394 Y92.85 E.71815
G1 X118.858 Y92.85 E.01691
G1 X135.5 Y109.492 E.74206
G1 X135.5 Y110.028 E.01691
G1 X118.322 Y92.85 E.76597
G1 X117.786 Y92.85 E.01691
G1 X135.5 Y110.564 E.78988
G1 X135.5 Y111.101 E.01691
G1 X117.249 Y92.85 E.81379
G1 X116.713 Y92.85 E.01691
G1 X135.5 Y111.637 E.83771
G1 X135.5 Y112.173 E.01691
G1 X116.177 Y92.85 E.86162
G1 X115.641 Y92.85 E.01691
G1 X120.024 Y97.234 E.19547
G1 X120.47 Y97.234 E.01405
G1 X120.47 Y97.679 E.01405
G1 X135.5 Y112.709 E.6702
G1 X135.5 Y113.246 E.01691
G1 X120.47 Y98.215 E.6702
G1 X120.47 Y98.752 E.01691
G1 X135.5 Y113.782 E.6702
G1 X135.5 Y114.318 E.01691
G1 X120.47 Y99.288 E.6702
G1 X120.47 Y99.824 E.01691
G1 X135.5 Y114.854 E.6702
G1 X135.5 Y115.391 E.01691
G1 X120.47 Y100.36 E.6702
G1 X120.47 Y100.897 E.01691
G1 X135.5 Y115.927 E.6702
G1 X135.5 Y116.463 E.01691
G1 X120.47 Y101.433 E.6702
G1 X120.47 Y101.969 E.01691
G1 X135.5 Y116.999 E.6702
G1 X135.5 Y117.536 E.01691
G1 X120.138 Y102.173 E.685
G1 X119.602 Y102.173 E.01691
G1 X135.5 Y118.072 E.70892
G1 X135.5 Y118.608 E.01691
G1 X119.065 Y102.173 E.73283
G1 X118.529 Y102.173 E.01691
G1 X135.5 Y119.144 E.75674
G1 X135.5 Y119.681 E.01691
G1 X117.993 Y102.173 E.78065
G1 X117.457 Y102.173 E.01691
G1 X135.5 Y120.217 E.80456
G1 X135.5 Y120.753 E.01691
G1 X116.92 Y102.173 E.82847
G1 X116.384 Y102.173 E.01691
G1 X135.5 Y121.289 E.85238
G1 X135.5 Y121.826 E.01691
G1 X115.848 Y102.173 E.8763
G1 X115.311 Y102.173 E.01691
G1 X135.5 Y122.362 E.90021
G1 X135.5 Y122.898 E.01691
G1 X114.775 Y102.173 E.92412
G1 X114.239 Y102.173 E.01691
G1 X135.5 Y123.434 E.94803
G1 X135.5 Y123.971 E.01691
G1 X113.703 Y102.173 E.97194
G1 X113.166 Y102.173 E.01691
G1 X135.5 Y124.507 E.99585
G1 X135.5 Y125.043 E.01691
G1 X112.63 Y102.173 E1.01977
G1 X112.094 Y102.173 E.01691
G1 X135.5 Y125.579 E1.04368
G1 X135.5 Y126.116 E.01691
G1 X111.388 Y102.004 E1.07515
G1 E-3.5 F3600
;WIPE_START
G1 F7200
G1 X113.509 Y104.125 E-1.425
;WIPE_END
G1 E-.075 F3600
G1 X119.658 Y97.403 F9000
G1 E5 F2400
G1 F1200
G1 X115.104 Y92.85 E.20303
G1 X114.568 Y92.85 E.01691
G1 X118.952 Y97.234 E.19547
G1 X118.416 Y97.234 E.01691
G1 X114.032 Y92.85 E.19547
G1 X113.496 Y92.85 E.01691
G1 X117.879 Y97.234 E.19547
G1 X117.343 Y97.234 E.01691
G1 X112.959 Y92.85 E.19547
G1 X112.423 Y92.85 E.01691
G1 X116.807 Y97.234 E.19547
G1 X116.271 Y97.234 E.01691
G1 X111.887 Y92.85 E.19547
G1 X111.351 Y92.85 E.01691
G1 X115.734 Y97.234 E.19547
G1 X115.198 Y97.234 E.01691
G1 X110.814 Y92.85 E.19547
G1 X110.278 Y92.85 E.01691
G1 X114.662 Y97.234 E.19547
G1 X114.126 Y97.234 E.01691
G1 X109.742 Y92.85 E.19547
G1 X109.206 Y92.85 E.01691
G1 X113.589 Y97.234 E.19547
G1 X113.053 Y97.234 E.01691
G1 X108.669 Y92.85 E.19547
G1 X108.133 Y92.85 E.01691
G1 X112.517 Y97.234 E.19547
G1 X111.981 Y97.234 E.01691
G1 X107.597 Y92.85 E.19547
G1 X107.061 Y92.85 E.01691
G1 X111.444 Y97.234 E.19547
G1 X110.908 Y97.234 E.01691
G1 X106.524 Y92.85 E.19547
G1 X105.988 Y92.85 E.01691
G1 X110.53 Y97.392 E.20253
G1 X110.53 Y97.928 E.01691
G1 X105.452 Y92.85 E.22644
G1 X104.916 Y92.85 E.01691
G1 X110.53 Y98.464 E.25035
G1 X110.53 Y99.001 E.01691
G1 X104.379 Y92.85 E.27426
G1 X103.843 Y92.85 E.01691
G1 X110.53 Y99.537 E.29817
G1 X110.53 Y100.073 E.01691
G1 X103.307 Y92.85 E.32209
G1 X102.771 Y92.85 E.01691
G1 X110.53 Y100.609 E.346
G1 X110.53 Y101.146 E.01691
G1 X102.234 Y92.85 E.36991
G1 X101.698 Y92.85 E.01691
G1 X110.53 Y101.682 E.39382
G1 X110.53 Y102.173 E.01549
G1 X111.021 Y102.173 E.01549
G1 X135.5 Y126.652 E1.0915
G1 X135.5 Y127.188 E.01691
G1 X101.162 Y92.85 E1.53114
G1 X100.626 Y92.85 E.01691
G1 X135.5 Y127.724 E1.55505
G1 X135.5 Y128.261 E.01691
G1 X100.089 Y92.85 E1.57896
G1 X99.553 Y92.85 E.01691
G1 X135.5 Y128.797 E1.60288
G1 X135.5 Y129.333 E.01691
G1 X99.017 Y92.85 E1.62679
G1 X98.481 Y92.85 E.01691
G1 X135.5 Y129.869 E1.6507
G1 X135.5 Y130.406 E.01691
G1 X97.944 Y92.85 E1.67461
G1 X97.661 Y92.85 E.00892
G1 X97.535 Y92.977 E.00565
G1 X135.5 Y130.942 E1.69287
G1 X135.5 Y131.478 E.01691
G1 X97.267 Y93.245 E1.70483
G1 X96.998 Y93.513 E.01196
G1 X135.5 Y132.015 E1.71679
G1 X135.5 Y132.551 E.01691
G1 X96.73 Y93.781 E1.72874
G1 X96.462 Y94.049 E.01196
G1 X135.5 Y133.087 E1.7407
G1 X135.5 Y133.623 E.01691
G1 X96.194 Y94.317 E1.75265
G1 X95.926 Y94.585 E.01196
G1 X135.5 Y134.16 E1.76461
G1 X135.5 Y134.696 E.01691
G1 X95.658 Y94.853 E1.77656
G1 X95.5 Y95.011 E.00704
G1 X95.5 Y95.232 E.00695
G1 X135.5 Y135.232 E1.7836
G1 X135.5 Y135.768 E.01691
G1 X95.5 Y95.768 E1.7836
G1 X95.5 Y96.304 E.01691
G1 X135.342 Y136.147 E1.77656
G1 X135.074 Y136.415 E.01196
G1 X95.5 Y96.841 E1.76461
G1 X95.5 Y97.377 E.01691
G1 X134.806 Y136.683 E1.75265
G1 X134.538 Y136.951 E.01196
G1 X95.5 Y97.913 E1.7407
G1 X95.5 Y98.449 E.01691
G1 X134.27 Y137.219 E1.72874
G1 X134.002 Y137.487 E.01196
G1 X95.5 Y98.986 E1.71678
G1 X95.5 Y99.522 E.01691
G1 X133.733 Y137.755 E1.70483
G1 X133.465 Y138.024 E.01196
G1 X95.5 Y100.058 E1.69287
G1 X95.5 Y100.594 E.01691
G1 X133.056 Y138.15 E1.67461
G1 X132.519 Y138.15 E.01691
G1 X95.5 Y101.131 E1.65069
G1 X95.5 Y101.667 E.01691
G1 X131.983 Y138.15 E1.62678
G1 X131.447 Y138.15 E.01691
G1 X95.5 Y102.203 E1.60287
G1 X95.5 Y102.739 E.01691
G1 X130.911 Y138.15 E1.57896
G1 X130.374 Y138.15 E.01691
G1 X95.5 Y103.276 E1.55505
G1 X95.5 Y103.812 E.01691
G1 X129.838 Y138.15 E1.53114
G1 X129.302 Y138.15 E.01691
G1 X95.5 Y104.348 E1.50722
G1 X95.5 Y104.884 E.01691
G1 X128.766 Y138.15 E1.48331
G1 X128.229 Y138.15 E.01691
G1 X95.5 Y105.421 E1.4594
G1 X95.5 Y105.957 E.01691
G1 X127.693 Y138.15 E1.43549
G1 X127.157 Y138.15 E.01691
G1 X95.5 Y106.493 E1.41158
G1 X95.5 Y107.029 E.01691
G1 X126.621 Y138.15 E1.38767
G1 X126.084 Y138.15 E.01691
G1 X95.5 Y107.566 E1.36376
G1 X95.5 Y108.102 E.01691
G1 X125.548 Y138.15 E1.33984
G1 X125.012 Y138.15 E.01691
G1 X95.5 Y108.638 E1.31593
G1 X95.5 Y109.174 E.01691
G1 X124.476 Y138.15 E1.29202
G1 X123.939 Y138.15 E.01691
G1 X95.5 Y109.711 E1.26811
G1 X95.5 Y110.247 E.01691
G1 X123.403 Y138.15 E1.2442
G1 X122.867 Y138.15 E.01691
G1 X95.5 Y110.783 E1.22029
G1 X95.5 Y111.319 E.01691
G1 X122.331 Y138.15 E1.19637
G1 X121.794 Y138.15 E.01691
G1 X95.5 Y111.856 E1.17246
G1 X95.5 Y112.392 E.01691
G1 X121.258 Y138.15 E1.14855
G1 X120.722 Y138.15 E.01691
G1 X95.5 Y112.928 E1.12464
G1 X95.5 Y113.464 E.01691
G1 X120.186 Y138.15 E1.10073
G1 X119.649 Y138.15 E.01691
G1 X95.5 Y114.001 E1.07682
G1 X95.5 Y114.537 E.01691
G1 X119.113 Y138.15 E1.05291
G1 X118.577 Y138.15 E.01691
G1 X95.5 Y115.073 E1.02899
G1 X95.5 Y115.61 E.01691
G1 X118.04 Y138.15 E1.00508
G1 X117.504 Y138.15 E.01691
G1 X95.5 Y116.146 E.98117
G1 X95.5 Y116.682 E.01691
G1 X116.968 Y138.15 E.95726
G1 X116.432 Y138.15 E.01691
G1 X95.5 Y117.218 E.93335
G1 X95.5 Y117.755 E.01691
G1 X115.895 Y138.15 E.90944
G1 X115.359 Y138.15 E.01691
G1 X95.5 Y118.291 E.88552
G1 X95.5 Y118.827 E.01691
G1 X114.823 Y138.15 E.86161
G1 X114.287 Y138.15 E.01691
G1 X95.5 Y119.363 E.8377
G1 X95.5 Y119.9 E.01691
G1 X113.75 Y138.15 E.81379
G1 X113.214 Y138.15 E.01691
G1 X95.5 Y120.436 E.78988
G1 X95.5 Y120.972 E.01691
G1 X112.678 Y138.15 E.76597
G1 X112.142 Y138.15 E.01691
G1 X95.5 Y121.508 E.74206
G1 X95.5 Y122.045 E.01691
G1 X111.605 Y138.15 E.71814
G1 X111.069 Y138.15 E.01691
G1 X95.5 Y122.581 E.69423
G1 X95.5 Y123.117 E.01691
G1 X110.533 Y138.15 E.67032
G1 X109.997 Y138.15 E.01691
G1 X95.5 Y123.653 E.64641
G1 X95.5 Y124.19 E.01691
G1 X109.46 Y138.15 E.6225
G1 X108.924 Y138.15 E.01691
G1 X95.5 Y124.726 E.59859
G1 X95.5 Y125.262 E.01691
G1 X108.388 Y138.15 E.57467
G1 X107.852 Y138.15 E.01691
G1 X95.5 Y125.798 E.55076
G1 X95.5 Y126.335 E.01691
G1 X107.315 Y138.15 E.52685
G1 X106.779 Y138.15 E.01691
G1 X95.5 Y126.871 E.50294
G1 X95.5 Y127.407 E.01691
G1 X106.243 Y138.15 E.47903
G1 X105.707 Y138.15 E.01691
G1 X95.5 Y127.943 E.45512
G1 X95.5 Y128.48 E.01691
G1 X105.17 Y138.15 E.43121
G1 X104.634 Y138.15 E.01691
G1 X95.5 Y129.016 E.40729
G1 X95.5 Y129.552 E.01691
G1 X104.098 Y138.15 E.38338
G1 X103.562 Y138.15 E.01691
G1 X95.5 Y130.088 E.35947
G1 X95.5 Y130.625 E.01691
G1 X103.025 Y138.15 E.33556
G1 X102.489 Y138.15 E.01691
G1 X95.5 Y131.161 E.31165
G1 X95.5 Y131.697 E.01691
G1 X101.953 Y138.15 E.28774
G1 X101.417 Y138.15 E.01691
G1 X95.5 Y132.233 E.26382
G1 X95.5 Y132.77 E.01691
G1 X100.88 Y138.15 E.23991
G1 X100.344 Y138.15 E.01691
G1 X95.5 Y133.306 E.216
G1 X95.5 Y133.842 E.01691
G1 X99.808 Y138.15 E.19209
G1 X99.272 Y138.15 E.01691
G1 X95.5 Y134.378 E.16818
G1 X95.5 Y134.915 E.01691
G1 X98.735 Y138.15 E.14427
G1 X98.199 Y138.15 E.01691
G1 X95.5 Y135.451 E.12035
G1 X95.5 Y135.987 E.01691
G1 X97.832 Y138.32 E.10401
M106 S255
;LAYER_CHANGE
;Z:0.44
;HEIGHT:0.24
;BEFORE_LAYER_CHANGE
G92 E0
;0.44


G1 E-3.5 F3600
;WIPE_START
G1 F7200
G1 X95.711 Y136.198 E-1.425
;WIPE_END
G1 E-.075 F3600
G1 Z.44 F9000
;AFTER_LAYER_CHANGE
;0.44
M104 S205 ; set temperature
G1 X92.637 Y139.273
G1 E5 F2400
;TYPE:Skirt/Brim
;WIDTH:0.42
G1 X91.992 Y138.628 E.03352
G1 X91.151 Y137.23 E.05999
G1 X91.003 Y136.24 E.0368
G1 X91.003 Y94.76 E1.52519
G1 X91.397 Y93.176 E.05999
G1 X91.992 Y92.372 E.0368
G1 X94.872 Y89.492 E.14973
G1 X96.27 Y88.651 E.05999
G1 X97.26 Y88.503 E.0368
G1 X133.74 Y88.503 E1.34135
G1 X135.324 Y88.897 E.05999
G1 X136.128 Y89.492 E.0368
G1 X139.008 Y92.372 E.14973
G1 X139.849 Y93.77 E.05999
G1 X139.997 Y94.76 E.0368
G1 X139.997 Y136.24 E1.52519
G1 X139.603 Y137.824 E.05999
G1 X139.008 Y138.628 E.0368
G1 X136.128 Y141.508 E.14973
G1 X134.73 Y142.349 E.05999
G1 X133.74 Y142.497 E.0368
G1 X97.26 Y142.497 E1.34135
G1 X95.676 Y142.103 E.05999
G1 X94.872 Y141.508 E.0368
G1 X92.679 Y139.315 E.11401
G1 E-3.5 F3600
;WIPE_START
G1 F7200
G1 X91.992 Y138.628 E-.46151
G1 X91.151 Y137.23 E-.77494
G1 X91.092 Y136.838 E-.18855
;WIPE_END
G1 E-.075 F3600
G1 X110.877 Y101.825 F9000
G1 E5 F2400
;TYPE:Perimeter
;WIDTH:0.45
G1 F1500
G1 X110.877 Y97.58 E.16881
G1 X120.123 Y97.58 E.36768
G1 X120.123 Y101.827 E.16887
G1 X110.935 Y101.827 E.36535
G1 X111.275 Y101.428 F9000
;TYPE:External perimeter
G1 F1500
G1 X111.275 Y97.978 E.13718
G1 X119.725 Y97.978 E.33599
G1 X119.725 Y101.428 E.13718
G1 X111.335 Y101.428 E.3336
G1 X110.878 Y101.48 F9000
G1 E-3.5 F3600
;WIPE_START
G1 F7200
G1 X111.283 Y98.429 E-1.425
;WIPE_END
G1 E-.075 F3600
G1 X97.918 Y92.503 F9000
G1 E5 F2400
;TYPE:Perimeter
G1 X133.482 Y92.503 E1.41411
G1 X135.997 Y95.018 E.14139
G1 X135.997 Y135.982 E1.62883
G1 X133.482 Y138.497 E.14139
G1 X97.518 Y138.497 E1.43002
G1 X95.003 Y135.982 E.14139
G1 X95.003 Y95.018 E1.62883
G1 X97.518 Y92.503 E.14139
G1 X97.858 Y92.503 E.01352
G1 X97.353 Y92.105 F9000
;TYPE:External perimeter
G1 F1500
G1 X133.647 Y92.105 E1.44314
G1 X136.395 Y94.853 E.15451
G1 X136.395 Y136.147 E1.64195
G1 X133.647 Y138.895 E.15451
G1 X97.353 Y138.895 E1.44314
G1 X94.605 Y136.147 E.15451
G1 X94.605 Y94.853 E1.64195
G1 X97.31 Y92.147 E.15213
G1 X97.695 Y92.312 F9000
G1 E-3.5 F3600
;WIPE_START
G1 F7200
G1 X100.31 Y92.144 E-1.425
;WIPE_END
G1 E-.075 F3600
G1 X135.877 Y135.677 F9000
G1 E5 F2400
;TYPE:Solid infill
;WIDTH:0.452568
G1 X133.356 Y138.198 E.14264
G1 X132.789 Y138.198 E.0227
G1 X135.698 Y135.289 E.1646
G1 X135.698 Y134.722 E.0227
G1 X132.222 Y138.198 E.1967
G1 X131.655 Y138.198 E.0227
